Adwaita++/actions/22/fcitx-erbi.svg

<svg height="22" width="22" xmlns="http://www.w3.org/2000/svg">
  <path d="m5 3c-1.108 0-2 .892-2 2v12c0 1.108.892 2 2 2h12c1.108 0 2-.892 2-2v-12c0-1.108-.892-2-2-2zm8.03125.9921875 1 .015625c-.010188.6801477.012075 1.3377771.037109 1.9921875h2.931641v1h-2.882812c.148824 2.308238.481442 4.400619.890624 6.033203.290301 1.158273.615781 2.093664.91211 2.708985.148164.307659.292885.534515.396484.65625.04618.05426-.0014.03006.01172.03906.23837-.0636.37119-.153757.478516-.429688.121643-.312741.176093-.811555.183593-1.375l1 .01172c-.0081.606847-.04696 1.197587-.251953 1.72461-.20499.527023-.660068.999054-1.302734 1.111328a.50005.50005 0 0 1 -.08008.0059c-.371987.0048-.607553-.212401-.800781-.439453-.193232-.227052-.363747-.515167-.535157-.871094-.342818-.711854-.678517-1.695627-.980469-2.90039-.429416-1.713388-.773586-3.88235-.923827-6.275431h-8.115234v-1h8.070312c-.024568-.6600189-.049341-1.3215952-.039062-2.0078125zm2.96875.0078125c.416833.3789393.758179.7765262 1.023438 1.1933594l-.966797.5683594c-.227364-.4168334-.531218-.8331668-.910157-1.25zm-10 4h6v1h-6zm0 2h6v1h-6zm0 2h1 5v3h-1v-2h-4v2h-1v-2zm2.0097656 2h1.0820313c-.0832715 1.204012-.3837497 2.115307-.9296875 2.693359-.6441967.719985-1.7994641 1.155065-3.4667969 1.306641l-.4550781-.966797c1.5157571-.151576 2.5190977-.492922 3.0117187-1.023437.4297724-.429773.6762005-1.10749.7578125-2.009766zm1.6933594.998047c.947348.454727 1.819462.985494 2.615234 1.591797l-.796875.910156c-.757878-.644197-1.5905453-1.19371-2.4999996-1.648438z" fill="#444"/>
</svg>

<svg xmlns="http://www.w3.org/2000/svg" width="22" height="22" version="1.1">
 <defs>
  <style id="current-color-scheme" type="text/css">
   .ColorScheme-Text { color:#444444; } .ColorScheme-Highlight { color:#4285f4; }
  </style>
 </defs>
 <path style="fill:currentColor" class="ColorScheme-Text" d="M 5,3 C 3.892,3 3,3.892 3,5 v 12 c 0,1.108 0.892,2 2,2 h 12 c 1.108,0 2,-0.892 2,-2 V 5 C 19,3.892 18.108,3 17,3 Z m 8.03125,0.9921875 1,0.015625 C 14.021062,4.6879602 14.043325,5.3455896 14.068359,6 H 17 v 1 h -2.882812 c 0.148824,2.308238 0.481442,4.400619 0.890624,6.033203 0.290301,1.158273 0.615781,2.093664 0.91211,2.708985 0.148164,0.307659 0.292885,0.534515 0.396484,0.65625 0.04618,0.05426 -0.0014,0.03006 0.01172,0.03906 0.23837,-0.0636 0.37119,-0.153757 0.478516,-0.429688 0.121643,-0.312741 0.176093,-0.811555 0.183593,-1.375 l 1,0.01172 c -0.0081,0.606847 -0.04696,1.197587 -0.251953,1.72461 -0.20499,0.527023 -0.660068,0.999054 -1.302734,1.111328 a 0.50005,0.50005 0 0 1 -0.08008,0.0059 c -0.371987,0.0048 -0.607553,-0.212401 -0.800781,-0.439453 C 15.361455,16.819863 15.19094,16.531748 15.01953,16.175821 14.676712,15.463967 14.341013,14.480194 14.039061,13.275431 13.609645,11.562043 13.265475,9.393081 13.115234,7 H 5 V 6 h 8.070312 C 13.045744,5.3399811 13.020971,4.6784048 13.03125,3.9921875 Z M 16,4 c 0.416833,0.3789393 0.758179,0.7765262 1.023438,1.1933594 l -0.966797,0.5683594 c -0.227364,-0.4168334 -0.531218,-0.8331668 -0.910157,-1.25 z M 6,8 h 6 V 9 H 6 Z m 0,2 h 6 v 1 H 6 Z m 0,2 h 1 5 v 3 H 11 V 13 H 7 v 2 H 6 v -2 z m 2.0097656,2 H 9.0917969 C 9.0085254,15.204012 8.7080472,16.115307 8.1621094,16.693359 7.5179127,17.413344 6.3626453,17.848424 4.6953125,18 L 4.2402344,17.033203 C 5.7559915,16.881627 6.7593321,16.540281 7.2519531,16.009766 7.6817255,15.579993 7.9281536,14.902276 8.0097656,14 Z m 1.6933594,0.998047 c 0.947348,0.454727 1.819462,0.985494 2.615234,1.591797 L 11.521484,17.5 C 10.763606,16.855803 9.9309387,16.30629 9.0214844,15.851562 Z"/>
</svg>
